X:1
T:Title
%%score { ( 1 4 5 ) | ( 2 3 6 ) }
L:1/8
Q:1/4=100
M:4/4
K:D
V:1 treble nm="Grand Piano"
V:4 treble 
V:5 treble 
V:2 bass 
V:3 bass 
V:6 bass 
V:1
 a>b a>g f>g f>e | d>e d>B A>c e>g | b>a g>f e>d c>B | .A2 .[cga]2 .[Acega]2 z2 | D2 F>G AA^GA | %5
w: L.~E.~Jones * * * * * * *|||||
 d2 B2 z2 D2 | z4 G4 | B2 A>^G A4 | D2 F>G AA^GA | d2 B2 z2 D2 | z4 c4 | A6[K:bass] z2 | %12
w: |||||||
 [Ge]2 [Fd]2 [Gc]2 [GB]2 | [GB]>A [=F^G]>[GB] [^FA]>[E=G] [A,DF]2 | [Ge]2 [Fd]2 [Gc]2 [GB]2 | %15
w: |||
 z4 [CA]4 | [DF]2 [A,DF]2 [EG]2 [G,B,EG]2 | [FA]>A ^G>A [A=c]>B [B,DGB]2 | %18
w: |||
 [Fd]>c d>G [DF]2 [A,CE]2 |[M:3/4] D6 |[M:1/4] A>d |[M:4/4] [Fd]2 [Gc]4 e>f | %22
w: ||||
 [Ge]2 [Fd]4 [FA]>[FA] | B2 B2- BB [^Gc]>[Gd] | c2 c4 A>A | z4 z A z2 | [A=c]2 B4 d>B | %27
w: |||||
 A3 d [Fd]2 [Gc]2 | d-[Fd-] [Gd-]>[Gd-] [Fd]2 z2 |] %29
w: ||
V:2
 A,>B, A,>G, F,>G, F,>E, | D,>E, D,>B,, A,,>C, E,>G, | G,>F, E,>D, G,>F, E,>D, | %3
 A,>^G, A,>B, A,>=G, F,>E, | z2 [F,A,D]2 z2 [F,A,D]2 | z2 [G,B,D]2 z2 [F,A,]2 | z2 [D,A,]2 A,,4 | %7
 z2 [F,A,D]2 [F,A,D]2 z2 | z2 [F,A,D]2 z2 [F,A,D]2 | z2 [G,B,D]2 z2 [F,A,]2 | %10
 z2 [D,B,D]2 z2 [E,B,]2 | [A,,C,E,A,]2 [A,,D,]2 [A,,C,E,]2 z2 | z2 [C,E,A,]2 [C,E,A,]2 [C,E,A,]2 | %13
 z z/ F/ [F,A,D]2 [F,A,D]2 F,2 | z2 [C,G,A,]2 z2 [C,G,A,]2 | z z/ C/ [E,^G,B,]2 [C,E,A,]2 C,2 | %16
 z2 =F,2 z2 E,2 | z z/[K:treble] F/ =F>^F[K:bass] z z/ ^G/ G,2 | z z/ E/ F>E z2 G,2 | %19
[M:3/4] D,2 .B,,>B, D,,2 |[M:1/4][K:treble] F>F |[M:4/4] A,2 A,2 A,2 G>A | %22
 [D,D]2 [A,D]2 [D,D]2 [D,D]>[D,D] | [G,DG]2 [G,DG]2- [G,DG][G,B,G][K:bass] [E,E]>[E,E] | %24
 [A,EA]2 [A,EA]4 G>G | z4 z F z2 | [G,D]2 [G,DG]4 [^G,DE]>[G,DE] | %27
 [A,DF]3 [A,F][K:bass] [A,,A,]2 [A,,A,]2 | A,A, B,>B, A,2 z2 |] %29
V:3
 x8 | x8 | x8 | x8 | D,4 D,,4 | G,,4 D,,4 | A,,4 z4 | D,,4 z4 | D,,4 D,,4 | G,,4 D,,4 | E,,4 E,,4 | %11
 x8 | A,,8 | D,8 | A,,4 A,,4 | E,,4 A,,4 | D,,4 E,,4 | z2[K:treble] [F,A,D]2[K:bass] z4 | %18
 z2 [F,A,D]2 z4 |[M:3/4] z2 z G,, z2 |[M:1/4][K:treble] x2 |[M:4/4] x8 | x8 | x6[K:bass] x2 | x8 | %25
 D,2 D,2 z z/ D,/ [D,D]>[D,D] | x8 | x4[K:bass] x4 | D,6 z2 |] %29
V:4
 x8 | x8 | x8 | x8 | x8 | z4 A4 | A2 E>F z2 A,2 | x8 | x8 | z4 A4 | EF^GA z2 z B | %11
 z2[K:bass] F,2 A,2 z2 | x8 | x8 | x8 | [DB]>A [D^G]>[DG] z2 [E,A,]2 | x8 | x8 | x8 | %19
[M:3/4] z A, B,2 A,2 |[M:1/4] x2 |[M:4/4] x8 | x8 | x8 | x8 | %25
 [DFd]2 [Fd]2- [Fd] z/ D/ [=F^G]>[^FA] | x8 | x8 | .F2 z2 z4 |] %29
V:5
 x8 | x8 | x8 | x8 | x8 | x8 | x8 | x8 | x8 | x8 | z4 z2 D2 | x2[K:bass] x6 | x8 | x8 | x8 | x8 | %16
 x8 | x8 | x8 |[M:3/4] x6 |[M:1/4] x2 |[M:4/4] x8 | x8 | x8 | x8 | z2 D2 D2 z2 | x8 | x8 | x8 |] %29
V:6
 x8 | x8 | x8 | x8 | x8 | x8 | x8 | x8 | x8 | x8 | x8 | x8 | x8 | x8 | x8 | x8 | x8 | %17
 F,,4[K:treble][K:bass] G,,4 | A,,4 A,,4 |[M:3/4] x6 |[M:1/4][K:treble] x2 |[M:4/4] x8 | x8 | %23
 x6[K:bass] x2 | x8 | z4 D,2 z2 | x8 | x4[K:bass] x4 | x8 |] %29

